X: 1
T: Christie MacLeod
C: Angus MacDowell
M: C|
L: 1/8
R: Reel
K: Hp
{g}f2{g}Af {g}Af{e}fA | {a}gf{g}ed {g}cd{g}ec |\
{g}f2{g}Af {g}Af{e}fA | {a}ge{g}dc {Gdc}d4 :|
{ag}a2Aa fgaf | {g}gf{g}ed {g}ef{a}ge |\
{ag}a2Aa fgaf | {a}ge{g}dc {Gdc}d4 |
{ag}a2Aa fgaf | {g}gf{g}ed {g}ef{a}ge |\
{g}fA{a}gA ag{a}fa | ge{g}dc {Gdc}d4 :|
